images/graphics/mountain_background_small.svg

<svg width="416" height="118" viewBox="0 0 416 118" fill="none" xmlns="http://www.w3.org/2000/svg">
<path fill-rule="evenodd" clip-rule="evenodd" d="M27.7466 118C92.6346 65.1588 18.981 149.047 92.4024 89.1533C123.95 63.4239 112.668 74.271 137.452 95.4131C146.213 102.902 155.691 83.1778 146.679 67.409C146.415 66.9532 165.216 44.5315 165.484 44.3517C165.258 42.6372 172.789 81.3671 172.399 54.5464C172.399 54.354 177.828 35.6999 181.277 35.4783C188.733 35.0016 178.13 28.3487 190.944 20.366C194.028 18.4508 198.283 8.72027 199.034 6.81764C199.16 7.01 218.632 24.4054 221.59 27.9807C224.804 31.8529 241.881 35.8086 241.247 49.4072C241.214 50.1599 247.537 63.7375 247.134 70.9633C246.794 77.1479 263.997 84.5201 270.299 100.067C278.376 119.993 268.117 81.0703 276.378 93.615C283.1 103.843 287.841 100.143 299.115 116.743C299.35 117.086 299.65 117.515 299.996 118C304.717 118 299.996 118 304.717 118C302.986 112.246 301.115 98.5252 298.885 97.1527C294.68 94.581 278.481 84.0894 278.535 80.7065C278.799 64.4819 299.715 92.2769 294.189 80.8235C283.599 58.8785 288.244 73.1336 282.353 69.9096C285.034 66.535 283.218 64.3564 283.964 62.3033C288.013 60.961 288.706 62.9054 279.324 54.0028C269.346 44.5482 282.336 40.2119 276.911 28.2901C274.591 23.2053 283.092 23.6904 288.832 28.332C291.777 30.7238 313.44 40.2202 327.634 46.0577C338.891 59.1629 352.204 67.9066 367.573 72.2973C355.85 65.7489 346.234 58.452 338.723 50.3941C339.26 50.5739 339.651 50.6784 339.86 50.7202C356.488 53.4383 352.36 56.4741 362.245 61.9854C368.593 62.8427 381.814 78.5906 399.885 83.1485C405.154 84.4833 410.52 90.2767 416 96.4352C416 87.7606 416 96.4352 416 87.7606C413.389 84.7671 410.806 81.6709 408.071 78.5906C396.977 66.0876 381.226 67.4424 375.47 60.4968C371.513 55.7172 348.39 43.4568 342.051 41.3869C341.891 41.2405 341.48 41.1527 341.216 40.9729C340.351 40.3917 339.932 40.3917 339.302 40.0446C337.855 39.2208 337.423 40.0655 335.858 40.0321C335.27 40.0321 333.29 38.7859 333.227 38.6145C333.055 38.5183 332.287 38.2005 332.178 38.1169C331.192 37.2931 328.603 35.4616 327.382 35.3361C326.514 35.2525 324.978 34.2155 324.344 34.0147C322.658 33.4628 322.154 32.2041 319.742 31.7943C317.854 31.4765 315.424 30.8535 313.775 29.8582C313.796 29.6575 293.715 24.0625 292.624 23.7782C292.427 23.7364 291.966 23.544 291.374 23.2806C287.17 18.5721 280.348 17.6103 275.057 14.6498C272.619 13.2949 262.969 18.4258 259.562 20.6253C257.774 21.7878 256.818 21.7669 255.647 22.7495C254.93 23.3517 249.807 25.6056 248.98 24.8863C248.258 24.2507 248.733 24.4723 248.007 24.3176C245.015 23.6611 245.661 25.363 244.214 25.5637C241.633 25.915 242.733 26.2955 241.419 26.7471C239.25 27.5207 240.593 28.0602 238.314 28.0183C236.565 25.3965 231.61 24.6647 229.289 21.2065C228.777 20.4329 224.439 16.5733 223.05 16.544C221.301 16.5231 216.316 11.4049 213.522 10.4849C213.496 10.4724 210.241 8.18921 210.064 8.04285C210.039 8.02194 207.585 6.94309 206.93 6.3493C206.049 5.54644 202.885 4.25432 200.427 3.58945C199.348 2.96639 198.266 2.43533 197.242 2.1928C193.558 1.29375 193.172 -0.822133 190.516 0.340351C185.167 2.65695 186.358 1.67428 180.623 5.40845C180.081 5.33318 177.09 5.92696 176.796 6.21131C175.265 7.68323 174.136 9.40605 172.428 9.3726C169.361 9.31824 170.339 9.98729 166.861 11.7937C163.919 13.3493 163.336 14.4783 160.118 15.8123C158.691 16.4144 155.318 19.5757 153.891 19.4293C153.035 19.9479 151.609 18.7728 149.926 21.3529C149.62 21.817 147.728 21.7669 145.966 23.9664C145.894 24.0625 144.09 24.9407 143.595 25.4467C140.557 28.5452 142.194 26.6426 140.822 27.412C138.892 28.5118 136.848 29.7161 134.792 30.5231C130.714 32.087 130.886 33.2621 128.922 34.4162C126.321 35.9508 126.153 36.8499 122.822 37.9998C121.026 38.6354 115.127 43.2561 113.18 43.6073C111.304 43.9251 104.406 50.3773 101.696 51.5482C101.482 51.6527 100.832 52.142 100.647 52.3092C96.6611 52.7859 95.3101 55.504 91.8947 57.1306C90.3339 57.8708 89.9898 58.8325 88.064 59.3636C85.3283 60.0954 81.3675 64.1222 80.2305 64.5028C77.927 65.2973 74.1928 68.7764 72.0739 68.5756C72.0404 68.5631 65.7047 72.1175 65.5285 72.3725C65.3523 72.6151 65.1299 72.6987 65.1383 72.9329C62.8055 74.7519 64.3159 71.5571 59.8474 76.8343C56.9859 80.2088 49.5678 82.4711 44.8476 87.6939C43.7986 88.8564 43.3497 86.0547 38.1553 93.7739C33.54 100.615 29.3652 99.7411 23.5457 104.37C19.1905 107.828 16.2702 106.335 9.70384 111.562C6.73406 113.923 3.56307 116.061 0.32251 118C27.7466 118 15.2195 118 27.7466 118Z" fill="white" fill-opacity="0.5"/>
</svg>

<svg xmlns="http://www.w3.org/2000/svg" width="416" height="118" fill="none"><path fill="#fff" fill-opacity=".5" fill-rule="evenodd" d="M27.747 118c64.888-52.841-8.766 31.047 64.656-28.847 31.548-25.729 20.266-14.882 45.05 6.26 8.761 7.489 18.239-12.235 9.227-28.004-.264-.456 18.537-22.878 18.805-23.057-.226-1.715 7.305 37.015 6.915 10.195 0-.192 5.429-18.846 8.878-19.068 7.456-.477-3.147-7.13 9.667-15.112 3.084-1.915 7.339-11.646 8.09-13.548.126.192 19.598 17.588 22.556 21.163 3.214 3.872 20.291 7.828 19.657 21.427-.033.753 6.29 14.33 5.887 21.556-.34 6.185 16.863 13.557 23.165 29.104 8.077 19.926-2.182-18.997 6.079-6.452 6.722 10.228 11.463 6.528 22.737 23.128l.881 1.257h4.721c-1.731-5.754-3.602-19.475-5.832-20.847-4.205-2.572-20.404-13.063-20.35-16.446.264-16.225 21.18 11.57 15.654.117-10.59-21.945-5.945-7.69-11.836-10.914 2.681-3.375.865-5.553 1.611-7.606 4.049-1.342 4.742.602-4.64-8.3-9.978-9.455 3.012-13.791-2.413-25.713-2.32-5.085 6.181-4.6 11.921.042 2.945 2.392 24.608 11.888 38.802 17.726 11.257 13.105 24.57 21.849 39.939 26.24-11.723-6.548-21.339-13.845-28.85-21.903.537.18.928.284 1.137.326 16.628 2.718 12.5 5.754 22.385 11.265 6.348.857 19.569 16.605 37.64 21.163 5.269 1.335 10.635 7.128 16.115 13.287v-8.675l-7.929-9.17c-11.094-12.503-26.845-11.148-32.601-18.094-3.957-4.78-27.08-17.04-33.419-19.11-.16-.146-.571-.234-.835-.414-.865-.581-1.284-.581-1.914-.928-1.447-.824-1.879.021-3.444-.013-.588 0-2.568-1.246-2.631-1.418-.172-.096-.94-.414-1.049-.498-.986-.824-3.575-2.655-4.796-2.781-.868-.084-2.404-1.121-3.038-1.321-1.686-.552-2.19-1.811-4.602-2.22-1.888-.318-4.318-.941-5.967-1.936.021-.201-20.06-5.796-21.151-6.08-.197-.042-.658-.234-1.25-.498-4.204-4.709-11.026-5.67-16.317-8.631-2.438-1.355-12.088 3.776-15.495 5.975-1.788 1.163-2.744 1.142-3.915 2.124-.717.602-5.84 2.856-6.667 2.137-.722-.636-.247-.414-.973-.569-2.992-.656-2.346 1.045-3.793 1.246-2.581.351-1.481.732-2.795 1.183-2.169.774-.826 1.313-3.105 1.271-1.749-2.622-6.704-3.354-9.025-6.812-.512-.774-4.85-4.633-6.239-4.662-1.749-.021-6.734-5.139-9.528-6.059-.026-.012-3.281-2.296-3.458-2.442-.025-.021-2.479-1.1-3.134-1.694-.881-.803-4.045-2.095-6.503-2.76-1.079-.623-2.161-1.154-3.185-1.397-3.684-.899-4.07-3.015-6.726-1.852-5.349 2.317-4.158 1.334-9.893 5.068-.542-.075-3.533.519-3.827.803-1.531 1.472-2.66 3.195-4.368 3.161-3.067-.054-2.089.615-5.567 2.421-2.942 1.556-3.525 2.685-6.743 4.019-1.427.602-4.8 3.763-6.227 3.617-.856.519-2.282-.657-3.965 1.924-.306.464-2.198.414-3.96 2.613-.072.096-1.876.974-2.371 1.48-3.038 3.099-1.401 1.196-2.773 1.965-1.93 1.1-3.974 2.304-6.03 3.111-4.078 1.564-3.906 2.739-5.87 3.893-2.601 1.535-2.769 2.434-6.1 3.584-1.796.636-7.695 5.256-9.642 5.608-1.876.318-8.774 6.77-11.484 7.941-.214.105-.864.594-1.049.761-3.986.477-5.337 3.195-8.752 4.821-1.561.74-1.905 1.702-3.831 2.233-2.736.732-6.696 4.759-7.833 5.139-2.303.795-6.038 4.274-8.157 4.073-.033-.012-6.369 3.542-6.545 3.797-.176.243-.399.326-.39.56-2.333 1.819-.822-1.376-5.291 3.901-2.861 3.374-10.28 5.637-15 10.86-1.049 1.162-1.498-1.639-6.692 6.08-4.615 6.841-8.79 5.967-14.61 10.596-4.355 3.458-7.276 1.965-13.842 7.192-2.97 2.361-6.141 4.499-9.381 6.438h27.424z"/></svg>
